X: 27053
T: Miss Hutchinson
R: reel
M: 4/4
K: Amajor
cefa e2dB|cBBB cBBB|cefa e2dB|cefg aAAA|
ce (3fga eAce|dBfB bBfB|ce (3fga eAce|cefg aAAA||
cA (3AAA cdec|BE (3EEE BcdB|cA (3AAA cded|cefg aAAA|
cA (3AAA cdec|BE (3EEE BcdB|BAGB Aced|cefg a2z2||

